svg/l/EG.svg

<svg width="32" height="24" viewBox="0 0 32 24" fill="none" xmlns="http://www.w3.org/2000/svg">
<g clip-path="url(#clip0_270_67357)">
<rect width="32" height="24" fill="white"/>
<path fill-rule="evenodd" clip-rule="evenodd" d="M0 0V24H32V0H0Z" fill="#F7FCFF"/>
<mask id="mask0_270_67357" style="mask-type:luminance" maskUnits="userSpaceOnUse" x="0" y="0" width="32" height="24">
<path fill-rule="evenodd" clip-rule="evenodd" d="M0 0V24H32V0H0Z" fill="white"/>
</mask>
<g mask="url(#mask0_270_67357)">
<path fill-rule="evenodd" clip-rule="evenodd" d="M0 0V8H32V0H0Z" fill="#BF2714"/>
<path fill-rule="evenodd" clip-rule="evenodd" d="M0 16V24H32V16H0Z" fill="#272727"/>
<path d="M12.2603 10.2202L13.2592 10.266L13.0085 15.7358L12.0095 15.69L12.2603 10.2202Z" fill="#C09302"/>
<path d="M13.304 10.5598L14.3024 10.6162L14.0516 15.0515L13.0532 14.9951L13.304 10.5598Z" fill="#C09302"/>
<path d="M14.3484 10.8919L15.3451 10.9737L15.0943 14.0297L14.0977 13.9479L14.3484 10.8919Z" fill="#C09302"/>
<path d="M19.7396 10.2202L18.7407 10.266L18.9914 15.7358L19.9904 15.69L19.7396 10.2202Z" fill="#C09302"/>
<path d="M18.6959 10.5598L17.6975 10.6162L17.9482 15.0515L18.9467 14.9951L18.6959 10.5598Z" fill="#C09302"/>
<path d="M17.6515 10.8919L16.6548 10.9737L16.9056 14.0297L17.9022 13.9479L17.6515 10.8919Z" fill="#C09302"/>
<path d="M15.9733 15.3267L14.9985 15.1034L15.4111 13.3027L16.3859 13.526L15.9733 15.3267Z" fill="#C09302"/>
<path d="M16.7195 15.3267L17.6942 15.1034L17.2816 13.3027L16.3069 13.526L16.7195 15.3267Z" fill="#C09302"/>
<path d="M16.4722 15.3102H15.4722V13.5423H16.4722V15.3102Z" fill="#C09302"/>
<path d="M14.6347 10.9133L15.6344 10.9378L15.576 13.3187L14.5763 13.2942L14.6347 10.9133Z" fill="#C09302"/>
<path d="M16.3738 10.9133L17.3735 10.9378L17.3151 13.3187L16.3154 13.2942L16.3738 10.9133Z" fill="#C09302"/>
<path d="M13.3379 15.9228L13.5976 14.9572C14.6586 15.2425 15.4734 15.3836 16.0289 15.3836C16.5845 15.3836 17.3992 15.2425 18.4602 14.9572L18.7199 15.9228C17.5815 16.229 16.6888 16.3836 16.0289 16.3836C15.369 16.3836 14.4763 16.229 13.3379 15.9228Z" fill="#C09302"/>
<path d="M12.2822 10.2227C12.2155 9.56211 12.6022 9.11493 13.2574 9.17197C13.4729 9.19072 13.7149 9.25446 14.0372 9.36381C14.1314 9.39612 14.1314 9.39612 14.2229 9.42852C14.666 9.58612 14.7863 9.62663 14.8113 9.63196C14.7131 9.60973 15.0023 9.08696 15.0686 8.99884C15.0764 9.0548 15.0432 9.04683 14.9632 9.03084L14.0612 8.85031L14.7033 8.19155C14.9277 7.96129 15.2266 7.84711 15.5677 7.84711C15.6031 7.84711 15.6361 7.84547 15.7444 7.8388C15.8246 7.83393 15.8246 7.83393 15.9147 7.8302C16.5386 7.80998 16.9861 7.98642 16.9861 8.62808C16.9861 8.85763 17.0151 9.22678 17.063 9.50683C17.0791 9.60104 17.1101 9.68922 17.0184 9.72795C17.0222 9.69453 17.2408 9.60828 17.5806 9.46616L17.6214 9.44911C18.6088 9.03696 18.7242 8.99873 19.0425 9.19217C19.2546 9.32108 19.4566 9.55295 19.6829 9.89867L18.8462 10.4464C18.7003 10.2234 18.584 10.0881 18.5287 10.0503C18.6545 10.1377 18.2308 10.2784 18.0066 10.3719L17.9664 10.3887C17.1977 10.7102 17.0963 10.7486 16.8765 10.7486C16.2783 10.7486 16.0635 10.1358 16.0047 9.25829C15.8201 9.86586 15.2695 10.6326 14.8157 10.6326C14.617 10.6326 14.7125 10.664 13.8878 10.3707C13.8014 10.3401 13.8014 10.3401 13.7159 10.3108C13.4661 10.226 13.2858 10.1785 13.1721 10.1683C13.1768 10.163 13.1935 10.1449 13.2123 10.1289L12.2822 10.2227Z" fill="#C09302"/>
</g>
</g>
<defs>
<clipPath id="clip0_270_67357">
<rect width="32" height="24" fill="white"/>
</clipPath>
</defs>
</svg>

<svg width="32" height="24" fill="none" xmlns="http://www.w3.org/2000/svg">
  <mask id="a" maskUnits="userSpaceOnUse" x="0" y="0" width="32" height="24">
    <path fill="#fff" d="M0 0h32v24H0z"/>
  </mask>
  <g mask="url(#a)">
    <path fill-rule="evenodd" clip-rule="evenodd" d="M0 0v24h32V0H0z" fill="#F7FCFF"/>
    <mask id="b" maskUnits="userSpaceOnUse" x="0" y="0" width="32" height="24">
      <path fill-rule="evenodd" clip-rule="evenodd" d="M0 0v24h32V0H0z" fill="#fff"/>
    </mask>
    <g mask="url(#b)">
      <path fill-rule="evenodd" clip-rule="evenodd" d="M0 0v8h32V0H0z" fill="#BF2714"/>
      <path fill-rule="evenodd" clip-rule="evenodd" d="M0 16v8h32v-8H0z" fill="#272727"/>
      <path d="M12.26 10.22l1 .046-.252 5.47-.998-.046.25-5.47zm1.044.34l.998.056-.25 4.436-.999-.057.251-4.435z" fill="#C09302"/>
      <path d="M14.348 10.892l.997.082-.25 3.056-.997-.082.25-3.056zm5.392-.672l-1 .046.251 5.47 1-.046-.251-5.47zm-1.044.34l-.998.056.25 4.436.999-.057-.251-4.435z" fill="#C09302"/>
      <path d="M17.651 10.892l-.996.082.25 3.056.997-.082-.25-3.056zm-1.678 4.435l-.975-.224.413-1.8.975.223-.413 1.8z" fill="#C09302"/>
      <path d="M16.72 15.327l.974-.224-.412-1.8-.975.223.413 1.8z" fill="#C09302"/>
      <path d="M16.472 15.31h-1v-1.768h1v1.768zm-1.837-4.397l1 .025-.059 2.38-1-.024.059-2.38zm1.739 0l1 .025-.059 2.38-1-.024.059-2.38z" fill="#C09302"/>
      <path d="M13.338 15.923l.26-.966c1.06.285 1.875.427 2.43.427.556 0 1.371-.142 2.432-.427l.26.966c-1.139.306-2.031.46-2.691.46-.66 0-1.553-.154-2.691-.46zm-1.056-5.7c-.066-.66.32-1.108.975-1.051.216.019.458.082.78.192l.186.065c.443.157.563.198.588.203-.098-.022.191-.545.258-.633.007.056-.026.048-.106.032l-.902-.18.642-.66a1.17 1.17 0 01.865-.344c.035 0 .068-.002.176-.008l.17-.009c.625-.02 1.072.156 1.072.798 0 .23.03.599.077.879.016.094.047.182-.045.221.004-.033.223-.12.563-.262l.04-.017c.988-.412 1.103-.45 1.422-.257.212.13.414.36.64.707l-.837.547c-.146-.223-.262-.358-.317-.396.125.088-.298.228-.522.322l-.04.017c-.77.321-.87.36-1.09.36-.599 0-.813-.613-.872-1.49-.185.607-.735 1.374-1.19 1.374-.198 0-.102.031-.927-.262l-.172-.06a2.692 2.692 0 00-.544-.143.449.449 0 01.04-.04l-.93.095z" fill="#C09302"/>
    </g>
  </g>
</svg>
